tools/download-figma-icons/icons/action/arrow-down.svg

<svg width="24" height="24" viewBox="0 0 24 24" fill="none" xmlns="http://www.w3.org/2000/svg">
<path fill-rule="evenodd" clip-rule="evenodd" d="M12.1395 20.609C12.141 20.609 12.1425 20.609 12.1447 20.609C12.1455 20.609 12.1462 20.6097 12.147 20.6097C12.2902 20.609 12.4267 20.579 12.5535 20.5302C12.5595 20.528 12.5647 20.5265 12.5707 20.5242C12.711 20.4672 12.837 20.3825 12.9412 20.2775L18.78 14.4387C19.2195 13.9992 19.2195 13.2875 18.78 12.848C18.3412 12.4085 17.6287 12.4085 17.1892 12.848L13.2592 16.778L13.2172 3.54875C13.215 2.92775 12.7095 2.42525 12.0885 2.4275C11.4675 2.429 10.9672 2.933 10.9672 3.5525V3.55625L11.0092 16.76L6.99374 12.7445C6.55424 12.305 5.84249 12.305 5.40299 12.7445C5.18324 12.9642 5.07299 13.2515 5.07299 13.5395C5.07299 13.8275 5.18324 14.1155 5.40299 14.3352L11.3475 20.2805L11.349 20.2812C11.4532 20.3847 11.5777 20.468 11.7165 20.525C11.721 20.5272 11.7262 20.528 11.7315 20.5295C11.8582 20.5797 11.9955 20.6082 12.1395 20.609Z" fill="black"/>
</svg>

<svg xmlns="http://www.w3.org/2000/svg" width="24" height="24" fill="none" viewBox="0 0 24 24"><path fill="currentColor" fill-rule="evenodd" d="M12.14 20.609h.007c.143 0 .28-.03.406-.079l.018-.006c.14-.057.266-.142.37-.247l5.839-5.838a1.124 1.124 0 1 0-1.59-1.591l-3.93 3.93-.043-13.23a1.125 1.125 0 0 0-2.25.005v.003l.042 13.204-4.015-4.016a1.124 1.124 0 1 0-1.591 1.591l5.945 5.945.001.001q.158.157.367.244l.016.005q.19.076.408.079" clip-rule="evenodd"/></svg>
